usr/share/icons/biglinux-icons-material/symbolic/actions/document-new-symbolic.svg

<svg version="1.1" viewBox="0 0 16 16" xmlns="http://www.w3.org/2000/svg">
 <defs>
  <style id="current-color-scheme" type="text/css">.ColorScheme-Text {
        color:#dedede;
      }</style>
 </defs>
 <path d="m5-1e-7c-1.1046 0-2 0.89543-2 2v4.207c0.32228-0.09115 0.65659-0.15366 1-0.18461v-4.0224c0-0.55228 0.44787-0.98723 1-1h4v3.5c0 0.82843 0.6716 1.5 1.5 1.5h3.5v7c0 0.5523-0.4477 1-1 1h-3.5997c-0.1829 0.3578-0.40383 0.6929-0.65746 1h4.2572c1.1046 0 2-0.8954 2-2v-7.5858c0-0.39782-0.158-0.77935-0.4393-1.0607l-3.9143-3.9142c-0.2813-0.2813-0.6628-0.43934-1.0606-0.43934zm8.7929 5h-3.2929c-0.2761 0-0.5-0.22386-0.5-0.5v-3.2929zm-4.7929 6.5c0 2.4853-2.0147 4.5-4.5 4.5s-4.5-2.0147-4.5-4.5 2.0147-4.5 4.5-4.5 4.5 2.0147 4.5 4.5zm-4-2c0-0.2761-0.22386-0.5-0.5-0.5-0.27614 0-0.5 0.2239-0.5 0.5v1.5h-1.5c-0.27614 0-0.5 0.2239-0.5 0.5s0.22386 0.5 0.5 0.5h1.5v1.5c0 0.2761 0.22386 0.5 0.5 0.5 0.27614 0 0.5-0.2239 0.5-0.5v-1.5h1.5c0.27614 0 0.5-0.2239 0.5-0.5s-0.22386-0.5-0.5-0.5h-1.5z" fill="#dedede"/>
</svg>

<svg xmlns="http://www.w3.org/2000/svg" viewBox="0 0 16 16"><defs><style id="current-color-scheme" type="text/css">.ColorScheme-Text{color:#dedede}</style></defs><path fill="#dedede" d="M5 0a2 2 0 0 0-2 2v4.207a5.48 5.48 0 0 1 1-.185V2c0-.552.448-.987 1-1h4v3.5A1.5 1.5 0 0 0 10.5 6H14v7a1 1 0 0 1-1 1H9.4a5.507 5.507 0 0 1-.657 1H13a2 2 0 0 0 2-2V5.414a1.5 1.5 0 0 0-.44-1.06L10.647.438A1.5 1.5 0 0 0 9.586 0zm8.793 5H10.5a.5.5 0 0 1-.5-.5V1.207zM9 11.5a4.5 4.5 0 1 1-9 0 4.5 4.5 0 0 1 9 0zm-4-2a.5.5 0 0 0-1 0V11H2.5a.5.5 0 0 0 0 1H4v1.5a.5.5 0 0 0 1 0V12h1.5a.5.5 0 0 0 0-1H5z"/></svg>
